X: 152
T: Orsapolska efter Griv Juga
S: efter Griv Juga
R: Polska
O: Dalarna, Orsa
Z: Hkan Lidn, 2008-09-28
M: 3/4
L: 1/8
K: Ddor
V:1
c | d>e f2 d>e | c2 A3 A | D>E F/E/F/G/ A>G | F2 E3 c | 
d>e f2 d>e | c2 A4 | d>e f/e/f/g/ a>g | f2 e4- | e2 e4 ||
|: e2 g/a/g/f/ e>d | f/e/f/g/ aa (3^cBc | d2 g/a/g/f/ e>d | f/e/f/g/ a3 g |
|1 bg/b/ a3 g | f2 e4- | e2 e4 :|2 f/e/f/g/ a>f d>e | ^c2 d3 |]
V:2
E | F>G A2 F>A | E2 E3 E | A,>^C D/C/D/E/ F>E | D2 ^C3 E |
F>G A2 F>A | E2 E4 | A>^c d/c/d/e/ f>e | d2 ^c4- | c2 ^c4 ||
|: A2 e/f/e/d/ ^c>A | d/^c/d/e/ ff  (3EDE | D2 e/f/e/d/ ^c>A | d/^c/d/e/ f3 e |
|1 ge/g/ f3 e | d2 ^c4- | c2 ^c4 :|2 d/^c/d/e/ f>d A>G | E2 D3 |]
